X:194
T: Die Gans (2-98) S. 286
N: P0969
O: Lothringen
S: PINCK, Louis: Verklingende Weisen, Bd 2, Metz 1928]
R: ???]
M: 3/4
L: 1/8
K: G
DDD | G2G2BA | G2D2
D2 | B2A2BA | G4
G2 | d2d2ed | c2A2A
B | c2c2dc | B2G2
A2 | B3ABA | G2D2
D2 | B3ABA | G2z4 |
d2d2ed | c2A2A
B | c2c2dc | B2G2
A2 | B3ABA | G2D2
D2 | B3ABA | G2z

@@@ Tune index: 7744
